Papirus-nordic/48x48/apps/caja-actions.svg

<svg xmlns="http://www.w3.org/2000/svg" width="48" height="48" version="1">
 <g>
  <rect style="fill:#82abaa" width="36" height="24" x="6" y="4" rx="1.5" ry="1.5"/>
  <rect style="opacity:0.1" width="36" height="24" x="6" y="7" rx="1.5" ry="1.5"/>
  <rect style="fill:#a3be8c" width="36" height="24" x="6" y="8" rx="1.5" ry="1.5"/>
  <rect style="opacity:0.1" width="36" height="24" x="6" y="11" rx="1.5" ry="1.5"/>
  <rect style="fill:#ebcb8b" width="36" height="24" x="6" y="12" rx="1.5" ry="1.5"/>
  <rect style="opacity:.2" width="40" height="28" x="4" y="17" rx="2" ry="2"/>
  <rect style="fill:#718382" width="40" height="28" x="4" y="16" rx="2" ry="2"/>
  <rect style="opacity:.2" width="14" height="4" x="17" y="28" rx="1" ry="1"/>
  <rect style="fill:#ececec" width="14" height="4" x="17" y="27" rx="1" ry="1"/>
  <path style="fill:#ffffff;opacity:0.1" d="M 7.5 4 C 6.669 4 6 4.669 6 5.5 L 6 6.5 C 6 5.669 6.669 5 7.5 5 L 40.5 5 C 41.331 5 42 5.669 42 6.5 L 42 5.5 C 42 4.669 41.331 4 40.5 4 L 7.5 4 z"/>
  <path style="opacity:0.1;fill:#ffffff" d="M 7.5,8 C 6.669,8 6,8.669 6,9.5 V 10.5 C 6,9.669 6.669,9 7.5,9 H 40.5 C 41.331,9 42,9.669 42,10.5 V 9.5 C 42,8.669 41.331,8 40.5,8 Z"/>
  <path style="opacity:0.1;fill:#ffffff" d="M 7.5,12 C 6.669,12 6,12.669 6,13.5 V 14.5 C 6,13.669 6.669,13 7.5,13 H 40.5 C 41.331,13 42,13.669 42,14.5 V 13.5 C 42,12.669 41.331,12 40.5,12 Z"/>
 </g>
 <g>
  <circle style="opacity:0.2" cx="36" cy="37" r="11"/>
  <circle style="fill:#6ec149" cx="36" cy="36" r="11"/>
  <path style="fill:#ffffff" d="m 34.488,29.999 -0.13345,1.5804 a 4.7567,4.7143 0 0 0 -1.3902,0.79689 l -1.4493,-0.67635 -1.5135,2.5982 1.3159,0.9057 a 4.7567,4.7143 0 0 0 -0.07265,0.7952 4.7567,4.7143 0 0 0 0.06922,0.79855 l -1.314,0.903 1.5135,2.5982 1.4459,-0.67466 a 4.7567,4.7143 0 0 0 1.393,0.792 l 0.133,1.584 3.027,0 0.13344,-1.5804 a 4.7567,4.7143 0 0 0 1.3902,-0.79688 l 1.4493,0.67634 1.5135,-2.5982 -1.3159,-0.9057 a 4.7567,4.7143 0 0 0 0.07265,-0.79519 4.7567,4.7143 0 0 0 -0.06922,-0.79855 l 1.313,-0.901 -1.5135,-2.5982 -1.446,0.67467 a 4.7567,4.7143 0 0 0 -1.393,-0.792 l -0.13344,-1.5837 -3.027,0 z m 1.5135,4.2857 a 1.7297,1.7143 0 0 1 1.7297,1.7143 1.7297,1.7143 0 0 1 -1.7297,1.7143 1.7297,1.7143 0 0 1 -1.7297,-1.7143 1.7297,1.7143 0 0 1 1.7297,-1.7143 z"/>
 </g>
</svg>

<svg xmlns="http://www.w3.org/2000/svg" width="48" height="48" version="1"><rect width="36" height="24" x="6" y="4" rx="1.5" ry="1.5" fill="#82abaa"/><rect width="36" height="24" x="6" y="7" rx="1.5" ry="1.5" opacity=".1"/><rect width="36" height="24" x="6" y="8" rx="1.5" ry="1.5" fill="#a3be8c"/><rect width="36" height="24" x="6" y="11" rx="1.5" ry="1.5" opacity=".1"/><rect width="36" height="24" x="6" y="12" rx="1.5" ry="1.5" fill="#ebcb8b"/><rect width="40" height="28" x="4" y="17" rx="2" ry="2" opacity=".2"/><rect width="40" height="28" x="4" y="16" rx="2" ry="2" fill="#718382"/><rect width="14" height="4" x="17" y="28" rx="1" ry="1" opacity=".2"/><rect width="14" height="4" x="17" y="27" rx="1" ry="1" fill="#ececec"/><path d="M7.5 4C6.669 4 6 4.669 6 5.5v1C6 5.669 6.669 5 7.5 5h33c.831 0 1.5.669 1.5 1.5v-1c0-.831-.669-1.5-1.5-1.5h-33zM7.5 8C6.669 8 6 8.669 6 9.5v1C6 9.669 6.669 9 7.5 9h33c.831 0 1.5.669 1.5 1.5v-1c0-.831-.669-1.5-1.5-1.5zM7.5 12c-.831 0-1.5.669-1.5 1.5v1c0-.831.669-1.5 1.5-1.5h33c.831 0 1.5.669 1.5 1.5v-1c0-.831-.669-1.5-1.5-1.5z" fill="#fff" opacity=".1"/><g><circle cx="36" cy="37" r="11" opacity=".2"/><circle cx="36" cy="36" r="11" fill="#6ec149"/><path d="M34.488 29.999l-.133 1.58a4.757 4.714 0 0 0-1.39.797l-1.45-.676-1.513 2.598 1.315.906a4.757 4.714 0 0 0-.072.795 4.757 4.714 0 0 0 .069.799L30 37.7l1.514 2.598 1.445-.675a4.757 4.714 0 0 0 1.393.792L34.485 42h3.027l.134-1.58a4.757 4.714 0 0 0 1.39-.797l1.45.676 1.513-2.598-1.316-.906a4.757 4.714 0 0 0 .073-.795 4.757 4.714 0 0 0-.07-.798L42 34.3l-1.513-2.599-1.446.675a4.757 4.714 0 0 0-1.393-.792l-.134-1.584h-3.027zm1.514 4.286a1.73 1.714 0 0 1 1.73 1.714 1.73 1.714 0 0 1-1.73 1.714A1.73 1.714 0 0 1 34.272 36a1.73 1.714 0 0 1 1.73-1.714z" fill="#fff"/></g></svg>
